X:1
T: Duke of Atholl's Jig #2
C:Ron Gonnella
R:Jig
Q:180
K:D
M:6/8
L:1/16
c2|:B4B2 B2d2e2|f4f2 f2e2d2|f2e2d2 d2c2B2|c6 c4A2|B4B2 B2d2e2|f4f2 f2e2d2|f2e2d2 c2A2c2|1B6 B4c2:|2B6 B6|
d4B2 f4B2|d4B2 f4B2|f2^g2a2 f2e2d2|e6 e6|d4B2 f4B2|d4B2 f4B2|f2e2d2 c2A2c2|B6 B6|
d4B2 f4B2|d4B2 f4B2|f2^g2a2 f2e2d2|e6 e4A2|d2c2d2 e2f2g2|a4a2 f2e2d2|e6 c2A2c2|d6 d6||
